X:1
T: Miss Stronoch of Marnoch's Strathspey
C:William Marshall
R:Strathspey
Q: 128
K:D
M:4/4
L:1/16
|:FG|A3B AF3 AB3 df3|A3B AF3 EEE2 E2FG|A3B AF3 AB3 df3|F3D EF3 DDD2 D2FG|
A3B AF3 AB3 df3|A3B AF3 EEE2 E2FG|A3B AF3 AB3 df3|F3D EF3 DDD2 D2fg|
af3 df3 A3d f3d|e3d f3d eee2 e2fg|af3 d2f2 e3d f3d|B3A Bd3 FFF2 F2fg|
af3 df3 A3d f3d|e3d f3d eee2 e4|f3d e3d B2A2 d2F2|E3D EF3 DDD2 D2:|
